src/android-chat.svg

<?xml version="1.0" encoding="utf-8"?>
<!-- Generated by IcoMoon.io -->
<!DOCTYPE svg PUBLIC "-//W3C//DTD SVG 1.1//EN" "http://www.w3.org/Graphics/SVG/1.1/DTD/svg11.dtd">
<svg version="1.1" xmlns="http://www.w3.org/2000/svg" xmlns:xlink="http://www.w3.org/1999/xlink" width="512" height="512" viewBox="0 0 512 512">
<path fill="#000000" d="M391.553 64h-333.946c-4.476 0-9.607 3.745-9.607 8.159v214.217c0 4.413 5.131 8.624 9.607 8.624h57.393v88.894l90.128-88.894h186.425c4.477 0 7.447-4.211 7.447-8.624v-214.217c0-4.414-2.971-8.159-7.447-8.159z"></path>
<path fill="#000000" d="M456.396 127h-32.396v166.57c0 15.987-6.915 26.43-25.152 26.43h-180.752l-38.905 39h129.688l90.121 89v-89h57.396c4.478 0 7.604-4.262 7.604-8.682v-214.215c0-4.414-3.126-9.103-7.604-9.103z"></path>
</svg>

<?xml version="1.0" encoding="utf-8"?>
<!-- Generator: Adobe Illustrator 16.2.1, SVG Export Plug-In . SVG Version: 6.00 Build 0)  -->
<!DOCTYPE svg PUBLIC "-//W3C//DTD SVG 1.1//EN" "http://www.w3.org/Graphics/SVG/1.1/DTD/svg11.dtd">
<svg version="1.1" id="Layer_1" xmlns="http://www.w3.org/2000/svg" xmlns:xlink="http://www.w3.org/1999/xlink" x="0px" y="0px"
	 width="512px" height="512px" viewBox="0 0 512 512" enable-background="new 0 0 512 512" xml:space="preserve">
<g>
	<path d="M391.553,64H57.607C53.131,64,48,67.745,48,72.159v214.217c0,4.413,5.131,8.624,9.607,8.624H115v88.894L205.128,295
		h186.425c4.477,0,7.447-4.211,7.447-8.624V72.159C399,67.745,396.029,64,391.553,64z"/>
	<path d="M456.396,127H424v166.57c0,15.987-6.915,26.43-25.152,26.43H218.096l-38.905,39h129.688L399,448v-89h57.396
		c4.478,0,7.604-4.262,7.604-8.682V136.103C464,131.689,460.874,127,456.396,127z"/>
</g>
</svg>
